Newaita-dark/apps/64/ksnakeduel.svg

<?xml version="1.0" encoding="UTF-8"?>
<svg xmlns="http://www.w3.org/2000/svg" xmlns:xlink="http://www.w3.org/1999/xlink" width="64pt" height="64pt" viewBox="0 0 64 64" version="1.1">
<defs>
<linearGradient id="linear0" gradientUnits="userSpaceOnUse" x1="254" y1="233.5" x2="254" y2="254.666672" gradientTransform="matrix(0.125012,0,0,0.125012,-0.00000763012,26.87757)">
<stop offset="0" style="stop-color:rgb(0%,0%,0%);stop-opacity:0.27451;"/>
<stop offset="1" style="stop-color:rgb(0%,0%,0%);stop-opacity:0;"/>
</linearGradient>
<radialGradient id="radial0" gradientUnits="userSpaceOnUse" cx="450.908936" cy="189.579361" fx="450.908936" fy="189.579361" r="21.166656" gradientTransform="matrix(0.000000348341,-0.156265,-0.281277,-0.000000203077,104.261296,127.190665)">
<stop offset="0" style="stop-color:rgb(0%,0%,0%);stop-opacity:0.313725;"/>
<stop offset="0.222222" style="stop-color:rgb(0%,0%,0%);stop-opacity:0.27451;"/>
<stop offset="1" style="stop-color:rgb(0%,0%,0%);stop-opacity:0;"/>
</radialGradient>
<radialGradient id="radial1" gradientUnits="userSpaceOnUse" cx="450.908936" cy="189.579361" fx="450.908936" fy="189.579361" r="21.166656" gradientTransform="matrix(-0.000000348341,0.156265,0.281277,0.000000203077,-40.755227,-15.054958)">
<stop offset="0" style="stop-color:rgb(0%,0%,0%);stop-opacity:0.313725;"/>
<stop offset="0.222222" style="stop-color:rgb(0%,0%,0%);stop-opacity:0.27451;"/>
<stop offset="1" style="stop-color:rgb(0%,0%,0%);stop-opacity:0;"/>
</radialGradient>
<radialGradient id="radial2" gradientUnits="userSpaceOnUse" cx="450.908936" cy="189.579361" fx="450.908936" fy="189.579361" r="21.166656" gradientTransform="matrix(-0.000000348341,-0.156265,0.281277,-0.000000203077,-40.755227,127.190665)">
<stop offset="0" style="stop-color:rgb(0%,0%,0%);stop-opacity:0.313725;"/>
<stop offset="0.222222" style="stop-color:rgb(0%,0%,0%);stop-opacity:0.27451;"/>
<stop offset="1" style="stop-color:rgb(0%,0%,0%);stop-opacity:0;"/>
</radialGradient>
<radialGradient id="radial3" gradientUnits="userSpaceOnUse" cx="450.908936" cy="189.579361" fx="450.908936" fy="189.579361" r="21.166656" gradientTransform="matrix(0.000000348341,0.156265,-0.281277,0.000000203077,104.261293,-15.054959)">
<stop offset="0" style="stop-color:rgb(0%,0%,0%);stop-opacity:0.313725;"/>
<stop offset="0.222222" style="stop-color:rgb(0%,0%,0%);stop-opacity:0.27451;"/>
<stop offset="1" style="stop-color:rgb(0%,0%,0%);stop-opacity:0;"/>
</radialGradient>
<linearGradient id="linear1" gradientUnits="userSpaceOnUse" x1="169.333328" y1="233.5" x2="169.333328" y2="-168.666656" gradientTransform="matrix(0.125012,0,0,0.125012,0,26.877566)">
<stop offset="0" style="stop-color:rgb(47.058824%,56.470588%,61.176471%);stop-opacity:1;"/>
<stop offset="1" style="stop-color:rgb(56.470588%,64.313725%,68.235294%);stop-opacity:1;"/>
</linearGradient>
<linearGradient id="linear2" gradientUnits="userSpaceOnUse" x1="540" y1="1095.118164" x2="540" y2="335.118103" >
<stop offset="0" style="stop-color:rgb(93.72549%,32.54902%,31.372549%);stop-opacity:1;"/>
<stop offset="1" style="stop-color:rgb(89.803922%,45.098039%,45.098039%);stop-opacity:1;"/>
</linearGradient>
</defs>
<g id="surface1">
<path style=" stroke:none;fill-rule:nonzero;fill:url(#linear0);" d="M 11.90625 55.871094 L 51.597656 55.871094 L 51.597656 58.8125 L 11.90625 58.8125 Z M 11.90625 55.871094 "/>
<path style=" stroke:none;fill-rule:nonzero;fill:url(#radial0);" d="M 51.597656 56.066406 L 56.890625 56.066406 L 56.890625 53.421875 L 51.597656 53.421875 Z M 51.597656 56.066406 "/>
<path style=" stroke:none;fill-rule:nonzero;fill:url(#radial1);" d="M 11.90625 56.066406 L 6.613281 56.066406 L 6.613281 58.714844 L 11.90625 58.714844 Z M 11.90625 56.066406 "/>
<path style=" stroke:none;fill-rule:nonzero;fill:url(#radial2);" d="M 11.90625 56.066406 L 6.613281 56.066406 L 6.613281 53.421875 L 11.90625 53.421875 Z M 11.90625 56.066406 "/>
<path style=" stroke:none;fill-rule:nonzero;fill:url(#radial3);" d="M 51.597656 56.066406 L 56.890625 56.066406 L 56.890625 58.714844 L 51.597656 58.714844 Z M 51.597656 56.066406 "/>
<path style=" stroke:none;fill-rule:nonzero;fill:url(#linear1);" d="M 9.261719 5.792969 L 54.246094 5.792969 C 55.707031 5.792969 56.890625 6.976562 56.890625 8.4375 L 56.890625 53.421875 C 56.890625 54.882812 55.707031 56.066406 54.246094 56.066406 L 9.261719 56.066406 C 7.800781 56.066406 6.613281 54.882812 6.613281 53.421875 L 6.613281 8.4375 C 6.613281 6.976562 7.800781 5.792969 9.261719 5.792969 Z M 9.261719 5.792969 "/>
<path style=" stroke:none;fill-rule:nonzero;fill:rgb(90.196079%,90.196079%,90.196079%);fill-opacity:0.392157;" d="M 9.261719 5.957031 C 7.796875 5.957031 6.613281 7.136719 6.613281 8.605469 L 6.613281 8.933594 C 6.613281 7.46875 7.796875 6.285156 9.261719 6.289062 L 54.246094 6.289062 C 55.710938 6.285156 56.890625 7.46875 56.890625 8.933594 L 56.890625 8.605469 C 56.890625 7.136719 55.710938 5.957031 54.246094 5.957031 Z M 9.261719 5.957031 "/>
<path style=" stroke:none;fill-rule:nonzero;fill:rgb(0%,0%,0%);fill-opacity:0.196078;" d="M 9.261719 55.894531 C 7.796875 55.894531 6.613281 54.714844 6.613281 53.246094 L 6.613281 52.917969 C 6.613281 54.382812 7.796875 55.5625 9.261719 55.5625 L 54.246094 55.5625 C 55.710938 55.5625 56.890625 54.382812 56.890625 52.917969 L 56.890625 53.246094 C 56.890625 54.714844 55.710938 55.894531 54.246094 55.894531 Z M 9.261719 55.894531 "/>
<path style="fill:none;stroke-width:3;stroke-linecap:round;stroke-linejoin:miter;stroke:rgb(12.941177%,12.941177%,12.941177%);stroke-opacity:1;stroke-miterlimit:4;" d="M 74.086675 -168.660675 L 433.927312 -168.660675 C 445.613696 -168.660675 455.081542 -159.192829 455.081542 -147.506445 L 455.081542 212.334192 C 455.081542 224.020576 445.613696 233.488421 433.927312 233.488421 L 74.086675 233.488421 C 62.400291 233.488421 52.901198 224.020576 52.901198 212.334192 L 52.901198 -147.506445 C 52.901198 -159.192829 62.400291 -168.660675 74.086675 -168.660675 Z M 74.086675 -168.660675 " transform="matrix(0.125012,0,0,0.125012,0,26.877566)"/>
<path style="fill-rule:nonzero;fill:rgb(50.588235%,78.039216%,51.764706%);fill-opacity:1;stroke-width:11.338583;stroke-linecap:square;stroke-linejoin:bevel;stroke:rgb(12.941177%,12.941177%,12.941177%);stroke-opacity:1;stroke-miterlimit:4;" d="M 780.043661 815.119053 C 757.841055 815.119053 740.008112 832.951997 740.008112 855.154602 C 740.008112 877.239109 757.841055 895.072052 780.043661 895.072052 L 1120.05058 895.072052 L 1120.05058 1415.061793 C 1120.05058 1437.264398 1135.639643 1455.097342 1155.007873 1455.097342 L 1540.010498 1455.097342 C 1562.213103 1455.097342 1580.046047 1437.264398 1580.046047 1415.061793 C 1580.046047 1392.977287 1562.213103 1375.144343 1540.010498 1375.144343 L 1200.003579 1375.144343 L 1200.003579 855.154602 C 1200.003579 832.951997 1182.170635 815.119053 1159.96803 815.119053 Z M 780.043661 815.119053 " transform="matrix(0.0330761,0,0,0.0330761,0,0)"/>
<path style="fill-rule:nonzero;fill:url(#linear2);stroke-width:11.338583;stroke-linecap:round;stroke-linejoin:round;stroke:rgb(12.941177%,12.941177%,12.941177%);stroke-opacity:1;stroke-miterlimit:4;" d="M 479.954192 335.164861 C 457.869686 335.164861 440.036742 352.997805 440.036742 375.082311 L 440.036742 1055.096149 C 440.036742 1077.298755 457.869686 1095.131698 479.954192 1095.131698 L 599.94274 1095.131698 C 622.145345 1095.131698 639.978289 1077.298755 639.978289 1055.096149 C 639.978289 1033.011643 622.145345 1015.0606 599.94274 1015.0606 L 519.989741 1015.0606 L 519.989741 415.11786 L 1360.027676 415.11786 C 1382.112182 415.11786 1399.945126 397.284917 1399.945126 375.082311 C 1399.945126 352.997805 1382.112182 335.164861 1360.027676 335.164861 Z M 479.954192 335.164861 " transform="matrix(0.0330761,0,0,0.0330761,0,0)"/>
</g>
</svg>

<svg xmlns="http://www.w3.org/2000/svg" width="64pt" height="64pt" viewBox="0 0 64 64"><defs><linearGradient id="a" gradientUnits="userSpaceOnUse" x1="254" y1="233.5" x2="254" y2="254.667" gradientTransform="translate(0 26.878) scale(.12501)"><stop offset="0" stop-opacity=".275"/><stop offset="1" stop-opacity="0"/></linearGradient><radialGradient id="b" gradientUnits="userSpaceOnUse" cx="450.909" cy="189.579" fx="450.909" fy="189.579" r="21.167" gradientTransform="matrix(0 -.15626 -.28128 0 104.261 127.19)"><stop offset="0" stop-opacity=".314"/><stop offset=".222" stop-opacity=".275"/><stop offset="1" stop-opacity="0"/></radialGradient><radialGradient id="c" gradientUnits="userSpaceOnUse" cx="450.909" cy="189.579" fx="450.909" fy="189.579" r="21.167" gradientTransform="matrix(0 .15626 .28128 0 -40.755 -15.055)"><stop offset="0" stop-opacity=".314"/><stop offset=".222" stop-opacity=".275"/><stop offset="1" stop-opacity="0"/></radialGradient><radialGradient id="d" gradientUnits="userSpaceOnUse" cx="450.909" cy="189.579" fx="450.909" fy="189.579" r="21.167" gradientTransform="matrix(0 -.15626 .28128 0 -40.755 127.19)"><stop offset="0" stop-opacity=".314"/><stop offset=".222" stop-opacity=".275"/><stop offset="1" stop-opacity="0"/></radialGradient><radialGradient id="e" gradientUnits="userSpaceOnUse" cx="450.909" cy="189.579" fx="450.909" fy="189.579" r="21.167" gradientTransform="matrix(0 .15626 -.28128 0 104.261 -15.055)"><stop offset="0" stop-opacity=".314"/><stop offset=".222" stop-opacity=".275"/><stop offset="1" stop-opacity="0"/></radialGradient><linearGradient id="f" gradientUnits="userSpaceOnUse" x1="169.333" y1="233.5" x2="169.333" y2="-168.667" gradientTransform="translate(0 26.878) scale(.12501)"><stop offset="0" stop-color="#78909c"/><stop offset="1" stop-color="#90a4ae"/></linearGradient><linearGradient id="g" gradientUnits="userSpaceOnUse" x1="540" y1="1095.118" x2="540" y2="335.118"><stop offset="0" stop-color="#ef5350"/><stop offset="1" stop-color="#e57373"/></linearGradient></defs><path d="M11.906 55.871h39.692v2.941H11.906zm0 0" fill="url(#a)"/><path d="M51.598 56.066h5.293v-2.644h-5.293zm0 0" fill="url(#b)"/><path d="M11.906 56.066H6.613v2.649h5.293zm0 0" fill="url(#c)"/><path d="M11.906 56.066H6.613v-2.644h5.293zm0 0" fill="url(#d)"/><path d="M51.598 56.066h5.293v2.649h-5.293zm0 0" fill="url(#e)"/><path d="M9.262 5.793h44.984a2.644 2.644 0 0 1 2.645 2.644v44.985a2.644 2.644 0 0 1-2.645 2.644H9.262a2.647 2.647 0 0 1-2.649-2.644V8.438a2.647 2.647 0 0 1 2.649-2.645zm0 0" fill="url(#f)"/><path d="M9.262 5.957a2.643 2.643 0 0 0-2.649 2.648v.329a2.64 2.64 0 0 1 2.649-2.645h44.984a2.637 2.637 0 0 1 2.645 2.645v-.329a2.64 2.64 0 0 0-2.645-2.648zm0 0" fill="#e6e6e6" fill-opacity=".392"/><path d="M9.262 55.895a2.643 2.643 0 0 1-2.649-2.649v-.328a2.642 2.642 0 0 0 2.649 2.645h44.984a2.639 2.639 0 0 0 2.645-2.645v.328a2.64 2.64 0 0 1-2.645 2.649zm0 0" fill-opacity=".196"/><path d="M9.262 5.793h44.984a2.644 2.644 0 0 1 2.645 2.644v44.985a2.644 2.644 0 0 1-2.645 2.644H9.262a2.647 2.647 0 0 1-2.649-2.644V8.437a2.647 2.647 0 0 1 2.649-2.644zm0 0" fill="none" stroke-width=".37503000000000003" stroke-linecap="round" stroke="#212121"/><path d="M25.8 26.961a1.32 1.32 0 0 0-1.323 1.324c0 .73.59 1.32 1.324 1.32h11.246v17.2c0 .734.516 1.324 1.156 1.324h12.735a1.32 1.32 0 0 0 1.324-1.324c0-.73-.59-1.32-1.324-1.32H39.69v-17.2a1.32 1.32 0 0 0-1.324-1.324zm0 0" fill="#81c784" stroke-width=".37509412" stroke-linecap="square" stroke-linejoin="bevel" stroke="#212121"/><path d="M479.954 335.165c-22.084 0-39.917 17.833-39.917 39.917v680.014c0 22.203 17.833 40.036 39.917 40.036h119.989a39.919 39.919 0 0 0 40.035-40.036c0-22.084-17.833-40.035-40.035-40.035H519.99V415.118h840.038c22.084 0 39.917-17.833 39.917-40.036 0-22.084-17.833-39.917-39.917-39.917zm0 0" transform="scale(.03308)" fill="url(#g)" stroke-width="11.339" stroke-linecap="round" stroke-linejoin="round" stroke="#212121"/></svg>
